X:163
T:Irish Grove. THO5.163, The
M:6/8
L:1/8
B:Thompson's Complete Collection of 200 Favourite Dances Vol.5
F:https://www.libraryofdance.org/manuals/1780c-Thompson-Compleat-5.pdf
Z:vmp. Peter Dunk 2024
Q:3/8=100
K:D
A|F/G/AF D2A|ded dAG|F/G/AF D2f|eEE E2G|
F/G/AF D2A|ded dAG|FdF Edc|dAF D2:|
|:g|f/g/af d2f|aba afd|f/g/af def|eEE E2g|
f/g/af dfa|bag fed|B/c/dB AFd|AFD D2:|
W:
W:cast off two Couples, up again ./.
W:lead down the middle, up again and cast off ./;
W:set corners :/.
W:and lead outsides :/:

